!!!SOCIAL_FUNCTION:	dance songs
!!!PDT:	1932
!!!OTL: No_118_Dancing_Song_(d).krn
!!!REG: Southwest
!!!LANG: Non-Tone
!!!LING_GROUP: Yuman-Cochimi
**kern
*staff1
=1-
*clefF4
*k[f#c#g#]
*M3/4
2r
8.r
16B\
=2
8.c#\L
16c#\Jk
8.c#\L
16B\Jk
8.A\L
16B\Jk
=3
4c#\
8.B\L
[16c#\Jk
8.c#\L]
16A\Jk
=4
8.B\L
16B\Jk
8.c#\L
16A\Jk
8.F#\L
16A\Jk
=5
8.B\L
16c#\Jk
8A\L
8A\J
4r
=6
8.c#\L
16c#\Jk
12c#\L
12A\
12B\J
8.A\L
16A\Jk
=7
4c#\
8.B\L
(16c#\Jk
12c#\L)
12A\
12A\J
=8
8.B\L
16B\Jk
8.c#\L
16A\Jk
8.F#\L
16A\Jk
=9
8.B\L
16c#\Jk
8A\L
8A\J
4r
=10
2.r
=11
*M2/4
4r
8.r
16c#\
=12
8.c#\L
16c#\Jk
8.c#\L
16c#\Jk
=13
12c#\L
12c#\
12c#\J
12c#\L
12B\
12c#\J
=14
4c#\
8.c#\L
16B\Jk
=15
8.c#\L
16c#\Jk
12d#\L
12c#\
12A#\J
=16||
*M3/4
8.B\L
16B\Jk
8.c#\L
16A#\Jk
8.F#\L
16A#\Jk
=17
8.B\L
16c#\Jk
8A#\L
8A#\J
4r
=18
8.c#\L
16c#\Jk
12c#\L
12A\
12B\J
8.A\L
16A\Jk
=19
4c#\
8.B\L
(16c#\Jk
12c#\L)
12A\
12A\J
=20
8.B\L
16B\Jk
8.c#\L
16A\Jk
8.F#\L
16A\Jk
=21
8.B\L
16c#\Jk
8A\L
8A\J
4r
==
*-
